src/16/actions/zoom-1-to-2.svg

<svg xmlns="http://www.w3.org/2000/svg" viewBox="0 0 16 16"><path d="M2 2v3h1V3h2V2H2zm9 0v1h2v2h1V2h-3zM9 4v8h3V4H9zM3 6v4h2V6H3zm3 0v4l2-2-2-2zm-4 5v3h3v-1H3v-2H2zm11 0v2h-2v1h3v-3h-1z" fill="currentColor" color="#5d656b"/></svg>

<svg xmlns="http://www.w3.org/2000/svg" viewBox="0 0 16 16">
  <defs id="defs3051">
    <style type="text/css" id="current-color-scheme">
      .ColorScheme-Text {
        color:#5d656b;
      }
      </style>
  </defs>
 <path style="fill:currentColor;fill-opacity:1;stroke:none" 
       d="M 2 2 L 2 3 L 2 5 L 3 5 L 3 3 L 5 3 L 5 2 L 3 2 L 2 2 z M 11 2 L 11 3 L 13 3 L 13 5 L 14 5 L 14 3 L 14 2 L 13 2 L 11 2 z M 9 4 L 9 12 L 12 12 L 12 4 L 9 4 z M 3 6 L 3 10 L 5 10 L 5 6 L 3 6 z M 6 6 L 6 10 L 8 8 L 6 6 z M 2 11 L 2 13 L 2 14 L 3 14 L 5 14 L 5 13 L 3 13 L 3 11 L 2 11 z M 13 11 L 13 13 L 11 13 L 11 14 L 13 14 L 14 14 L 14 13 L 14 11 L 13 11 z "
     class="ColorScheme-Text"
     />
</svg>
